packages/design-system/src/icons/source/main_logo.svg

<svg width="69" height="20" viewBox="0 0 69 20" fill="none" xmlns="http://www.w3.org/2000/svg">
<path d="M5.97968 4.60352C8.93419 4.60352 11.3293 6.99427 11.3293 9.94336C11.3293 12.8924 8.93417 15.2832 5.97968 15.2832C5.13772 15.2832 4.34161 15.0881 3.633 14.7422V19.7793H0.630066V10.0371H0.632019C0.631481 10.0059 0.630066 9.97468 0.630066 9.94336C0.630066 6.99427 3.02516 4.60352 5.97968 4.60352ZM30.1457 5.78418H30.2014C30.3891 5.52187 30.6214 5.29674 30.8967 5.10938C31.1844 4.90962 31.4974 4.76005 31.8351 4.66016C32.1855 4.56027 32.5547 4.50977 32.9426 4.50977C33.8559 4.50981 34.6567 4.71581 35.3449 5.12793C36.0331 5.54011 36.5712 6.10857 36.9592 6.83301C37.3596 7.55739 37.5597 8.40673 37.5598 9.38086C37.5598 10.1303 37.4411 10.8239 37.2033 11.4609C36.9655 12.098 36.6216 12.6543 36.1711 13.1289C35.7332 13.5909 35.1948 13.9465 34.5568 14.1963C33.9311 14.4461 33.211 14.5713 32.3976 14.5713C31.3591 14.5713 30.4517 14.3592 29.676 13.9346C28.9001 13.5099 28.2997 12.9031 27.8742 12.1162C27.4489 11.3294 27.2355 10.4114 27.2355 9.3623V0.21875H30.1457V5.78418ZM44.0099 4.50977C45.086 4.50981 45.9994 4.73494 46.7502 5.18457C47.5135 5.62174 48.0959 6.22757 48.4963 7.00195C48.9091 7.76374 49.2345 8.6193 49.2346 9.56836V14.5479H46.2619V12.8096H46.1867C46.0115 13.1468 45.7862 13.4528 45.5109 13.7275C45.2356 13.9898 44.8977 14.1968 44.4973 14.3467C44.1094 14.4964 43.6464 14.5713 43.1086 14.5713C42.2577 14.5713 41.5073 14.3521 40.8566 13.915C40.206 13.4779 39.699 12.8911 39.3361 12.1543C38.9733 11.4049 38.7912 10.5617 38.7912 9.625C38.7912 8.65072 39.0044 7.78244 39.4299 7.02051C39.8553 6.24614 40.4558 5.63422 41.2316 5.18457C42.02 4.7349 42.9463 4.50977 44.0099 4.50977ZM15.3849 14.5479H12.4562V4.73438H15.3849V14.5479ZM21.3088 4.50977C22.3097 4.50977 23.1608 4.70371 23.8615 5.09082C24.5748 5.47802 25.1199 5.99601 25.4953 6.64551C25.8707 7.29503 26.0578 8.01993 26.0578 8.81934V14.5479H23.1486V8.89453C23.1486 8.55728 23.0672 8.25038 22.9045 7.97559C22.7418 7.68849 22.5164 7.46406 22.2287 7.30176C21.9534 7.12691 21.6406 7.03906 21.2902 7.03906C20.9274 7.03909 20.6024 7.12696 20.3146 7.30176C20.0394 7.46407 19.8201 7.68846 19.6574 7.97559C19.4947 8.25038 19.4133 8.55728 19.4133 8.89453V14.5479H16.5041V8.81934C16.5041 8.01993 16.6982 7.29503 17.0861 6.64551C17.474 5.99618 18.0244 5.47796 18.7375 5.09082C19.4632 4.70366 20.3204 4.50982 21.3088 4.50977ZM57.7101 7.18848H55.6779C55.1899 7.18848 54.7705 7.29548 54.4201 7.50781C54.0697 7.70766 53.7942 7.98835 53.5939 8.35059C53.4062 8.70032 53.3127 9.10014 53.3127 9.5498C53.3127 9.99926 53.4601 10.6065 53.6476 10.9688C53.8479 11.3185 54.1234 11.6002 54.4738 11.8125C54.8242 12.0124 55.2436 12.1123 55.7316 12.1123H57.7648V14.5479H55.6193C54.6182 14.5479 53.7292 14.3419 52.9533 13.9297C52.1776 13.5051 51.5649 12.9364 51.1144 12.2246C50.664 11.5002 50.384 10.4741 50.384 9.5498C50.384 8.62566 50.6094 7.80758 51.0598 7.0957C51.5103 6.37124 52.1237 5.79578 52.8996 5.37109C53.6753 4.94655 54.5638 4.73441 55.5646 4.73438H57.7101V7.18848ZM61.7639 8.55664H63.0402L65.2365 4.92188H68.2648L65.8928 8.93164C66.6436 9.2439 67.2259 9.72453 67.6389 10.374C68.0643 11.0111 68.2766 11.7612 68.2766 12.623V14.5332H65.3488V12.623C65.3488 12.2733 65.2613 11.9603 65.0861 11.6855C64.9235 11.3984 64.7041 11.1741 64.4289 11.0117C64.1536 10.8494 63.4336 10.7676 63.0832 10.7676H61.7639V14.5332H58.8537V0.21875H61.7639V8.55664ZM5.97968 7.72656C4.75296 7.72656 3.75897 8.7189 3.75897 9.94336C3.75901 11.1678 4.75298 12.1602 5.97968 12.1602C7.20636 12.1602 8.20034 11.1678 8.20038 9.94336C8.20038 8.7189 7.20638 7.72657 5.97968 7.72656ZM32.3976 7.05762C31.9473 7.05766 31.5528 7.17072 31.215 7.39551C30.8899 7.60781 30.6392 7.90088 30.4641 8.27539C30.2889 8.65011 30.2014 9.07517 30.2014 9.5498C30.2014 10.0244 30.2889 10.4556 30.4641 10.8428C30.6392 11.2175 30.8897 11.5174 31.215 11.7422C31.5528 11.9545 31.9473 12.0605 32.3976 12.0605C32.8481 12.0605 33.2364 11.9545 33.5617 11.7422C33.8871 11.5174 34.1375 11.2175 34.3127 10.8428C34.5004 10.4556 34.5939 10.0245 34.5939 9.5498C34.5939 9.07517 34.5004 8.65011 34.3127 8.27539C34.1375 7.90085 33.8869 7.6078 33.5617 7.39551C33.2363 7.17067 32.8481 7.05762 32.3976 7.05762ZM43.9719 7.05762C43.5215 7.05766 43.1271 7.17072 42.7892 7.39551C42.4516 7.60779 42.1948 7.90091 42.0197 8.27539C41.8445 8.65011 41.757 9.06909 41.757 9.53125C41.757 10.0058 41.8445 10.437 42.0197 10.8242C42.1949 11.2113 42.4515 11.5174 42.7892 11.7422C43.1271 11.9545 43.5215 12.0605 43.9719 12.0605C44.4098 12.0605 44.792 11.9545 45.1174 11.7422C45.4552 11.5174 45.7117 11.2113 45.8869 10.8242C46.0621 10.437 46.1496 10.0058 46.1496 9.53125C46.1496 9.06909 46.0621 8.65011 45.8869 8.27539C45.7118 7.90091 45.455 7.60779 45.1174 7.39551C44.792 7.17067 44.4098 7.05762 43.9719 7.05762ZM13.9211 0.21875C14.3839 0.218872 14.7845 0.394521 15.1223 0.744141C15.4599 1.08132 15.6291 1.48136 15.6291 1.94336C15.629 2.40515 15.4598 2.80454 15.1223 3.1416C14.7845 3.47873 14.3839 3.64734 13.9211 3.64746C13.4581 3.64746 13.0568 3.47885 12.7189 3.1416C12.3814 2.80454 12.2122 2.40515 12.2121 1.94336C12.2121 1.48136 12.3813 1.08132 12.7189 0.744141C13.0568 0.394399 13.4581 0.21875 13.9211 0.21875Z" fill="#54D19D"/>
</svg>

<svg xmlns="http://www.w3.org/2000/svg" fill="none" viewBox="0 0 69 20"><path fill="#54d19d" d="M5.98 4.604c2.954 0 5.35 2.39 5.35 5.34a5.345 5.345 0 0 1-5.35 5.34 5.3 5.3 0 0 1-2.347-.542v5.037H.63v-9.742h.002L.63 9.943a5.345 5.345 0 0 1 5.35-5.34m24.166 1.18h.055q.282-.393.696-.675.43-.3.938-.449.525-.15 1.108-.15 1.37 0 2.402.618t1.614 1.705q.6 1.087.6 2.548 0 1.125-.356 2.08a4.9 4.9 0 0 1-1.032 1.668 4.4 4.4 0 0 1-1.614 1.067q-.939.375-2.16.375-1.557 0-2.721-.636a4.43 4.43 0 0 1-1.802-1.819q-.638-1.18-.639-2.754V.22h2.91zM44.01 4.51q1.615 0 2.74.675a4.37 4.37 0 0 1 1.746 1.817c.413.762.738 1.617.739 2.566v4.98h-2.973V12.81h-.075q-.262.506-.676.917-.413.395-1.014.62-.581.224-1.388.224-1.277 0-2.252-.656a4.44 4.44 0 0 1-1.52-1.76q-.546-1.125-.546-2.53 0-1.462.639-2.604a4.7 4.7 0 0 1 1.802-1.836q1.182-.675 2.778-.675M15.385 14.548h-2.929V4.734h2.929zM21.309 4.51q1.501 0 2.552.58 1.071.581 1.634 1.556.563.974.563 2.173v5.729h-2.91V8.895q.001-.507-.244-.92a1.75 1.75 0 0 0-.675-.673 1.7 1.7 0 0 0-.939-.263 1.84 1.84 0 0 0-1.633.937 1.77 1.77 0 0 0-.244.919v5.653h-2.909V8.819q0-1.2.582-2.173.582-.975 1.652-1.555 1.088-.58 2.57-.581M57.71 7.188h-2.032q-.732 0-1.258.32-.526.3-.826.843-.282.525-.281 1.199c0 .45.147 1.056.335 1.419q.3.525.826.844.526.3 1.258.3h2.033v2.435h-2.146q-1.501 0-2.666-.618a4.94 4.94 0 0 1-1.839-1.705c-.45-.725-.73-1.75-.73-2.675q0-1.386.676-2.454A4.9 4.9 0 0 1 52.9 5.37q1.163-.636 2.665-.637h2.145zm4.054 1.369h1.276l2.197-3.635h3.028l-2.372 4.01q1.126.468 1.746 1.442.638.956.638 2.249v1.91h-2.928v-1.91q0-.525-.263-.937a1.8 1.8 0 0 0-.657-.674c-.275-.163-.995-.244-1.346-.244h-1.32v3.765h-2.91V.22h2.91zM5.98 7.727c-1.227 0-2.221.992-2.221 2.216s.994 2.217 2.22 2.217S8.2 11.168 8.2 9.943a2.22 2.22 0 0 0-2.22-2.216m26.418-.67q-.675 0-1.183.339a2.07 2.07 0 0 0-.75.88q-.264.562-.264 1.274t.263 1.293q.263.561.751.9.507.317 1.183.317.675 0 1.164-.318.488-.337.75-.9.282-.58.282-1.292t-.281-1.275a2.07 2.07 0 0 0-.751-.88q-.489-.336-1.164-.337m11.574 0q-.676 0-1.183.339a2.03 2.03 0 0 0-.77.88 2.9 2.9 0 0 0-.262 1.255q0 .713.263 1.293.262.58.77.918.506.318 1.182.318.657 0 1.145-.318.507-.337.77-.918.263-.58.263-1.293a2.9 2.9 0 0 0-.263-1.256 2.03 2.03 0 0 0-.77-.88 1.97 1.97 0 0 0-1.145-.337M13.922.22q.693 0 1.2.525.507.505.507 1.2 0 .691-.507 1.198a1.64 1.64 0 0 1-1.2.505q-.696 0-1.203-.505a1.64 1.64 0 0 1-.507-1.199q0-.693.507-1.199Q13.227.22 13.92.22"/></svg>
